icons/linear-ele-food-fruit-watermelon.svg

<svg xmlns="http://www.w3.org/2000/svg" width="32px" height="32px" viewBox="0 0 32 32" version="1.1">
    <title>linear-ele-food-fruit-watermelon</title>
    <g id="linear-ele-food-fruit-watermelon" stroke-width="1" fill-rule="evenodd">
        <path d="M10.3994949,3.29289322 L28.7842712,21.6776695 C29.1747955,22.0681938 29.1747955,22.7013588 28.7842712,23.0918831 C23.3169312,28.5592232 14.4526215,28.5592232 8.98528137,23.0918831 C3.51794129,17.624543 3.51794129,8.7602333 8.98528137,3.29289322 C9.37580567,2.90236893 10.0089706,2.90236893 10.3994949,3.29289322 Z M9.72137953,5.44320494 L9.58757414,5.60399071 C5.79417368,10.240237 5.99382634,17.0520988 10.1865321,21.4593329 L10.3994949,21.6776695 C14.7973993,26.0755739 21.7596567,26.3462141 26.4731738,22.4895903 L26.6332524,22.3550778 L22.2547763,17.977 L21.2691324,21.9202052 C21.1351836,22.4560001 20.5922492,22.7817608 20.0564542,22.647812 C19.5206593,22.5138633 19.1948986,21.9709288 19.3288474,21.4351339 L20.6057763,16.328 L18.8847763,14.607 L14.6421356,18.8492424 C14.2516113,19.2397667 13.6184464,19.2397667 13.2279221,18.8492424 C12.8373978,18.4587181 12.8373978,17.8255531 13.2279221,17.4350288 L17.4697763,13.192 L15.7487763,11.471 L10.6420306,12.7483171 C10.1062357,12.8822658 9.56330116,12.5565051 9.42935244,12.0207102 C9.29540371,11.4849153 9.6211644,10.9419808 10.1569593,10.8080321 L14.0997763,9.822 L9.72137953,5.44320494 Z" id="&#24418;&#29366;" fill-rule="nonzero" />
    </g>
</svg>

<svg xmlns="http://www.w3.org/2000/svg" viewBox="0 0 32 32"><path fill="currentColor" d="m10.4 3.293 18.384 18.385a1 1 0 0 1 0 1.414c-5.467 5.467-14.331 5.467-19.799 0-5.467-5.467-5.467-14.332 0-19.8a1 1 0 0 1 1.414 0m-.679 2.15-.133.161c-3.794 4.636-3.594 11.448.599 15.855l.212.219c4.398 4.398 11.36 4.668 16.074.812l.16-.135-4.378-4.378-.986 3.943a1 1 0 0 1-1.94-.485l1.277-5.107-1.721-1.721-4.243 4.242a1 1 0 1 1-1.414-1.414l4.242-4.243-1.721-1.721-5.107 1.277a1 1 0 0 1-.485-1.94l3.943-.986z"/></svg>
